SVG_Azure_All/Regulatory Compliance.svg

<?xml version="1.0" encoding="UTF-8" standalone="no"?>
<!-- Generated by Microsoft Visio, SVG Export Regulatory Compliance.svg Page-1 -->

<svg
   xmlns:dc="http://purl.org/dc/elements/1.1/"
   xmlns:cc="http://creativecommons.org/ns#"
   xmlns:rdf="http://www.w3.org/1999/02/22-rdf-syntax-ns#"
   xmlns:svg="http://www.w3.org/2000/svg"
   xmlns="http://www.w3.org/2000/svg"
   xmlns:sodipodi="http://sodipodi.sourceforge.net/DTD/sodipodi-0.dtd"
   xmlns:inkscape="http://www.inkscape.org/namespaces/inkscape"
   width="0.6298604in"
   height="0.78730655in"
   viewBox="0 0 45.350001 56.685996"
   xml:space="preserve"
   class="st4"
   version="1.1"
   id="svg38"
   sodipodi:docname="Regulatory Compliance.svg"
   style="font-size:12px;overflow:visible;color-interpolation-filters:sRGB;fill:none;fill-rule:evenodd;stroke-linecap:square;stroke-miterlimit:3"
   inkscape:version="0.92.5 (2060ec1f9f, 2020-04-08)"><metadata
   id="metadata42"><rdf:RDF><cc:Work
       rdf:about=""><dc:format>image/svg+xml</dc:format><dc:type
         rdf:resource="http://purl.org/dc/dcmitype/StillImage" /></cc:Work></rdf:RDF></metadata><sodipodi:namedview
   pagecolor="#ffffff"
   bordercolor="#666666"
   borderopacity="1"
   objecttolerance="10"
   gridtolerance="10"
   guidetolerance="10"
   inkscape:pageopacity="0"
   inkscape:pageshadow="2"
   inkscape:window-width="640"
   inkscape:window-height="480"
   id="namedview40"
   showgrid="false"
   inkscape:zoom="1.4650115"
   inkscape:cx="30.236232"
   inkscape:cy="35.18854"
   inkscape:window-x="0"
   inkscape:window-y="0"
   inkscape:window-maximized="0"
   inkscape:current-layer="svg38" />
	<style
   type="text/css"
   id="style2">
	<![CDATA[
		.st1 {fill:#7138e3;stroke:none;stroke-linecap:butt;stroke-width:30.1093}
		.st2 {fill:url(#grad0-7);stroke:none;stroke-linecap:butt;stroke-width:30.1093}
		.st3 {fill:#ffffff}
		.st4 {fill:none;fill-rule:evenodd;font-size:12px;overflow:visible;stroke-linecap:square;stroke-miterlimit:3}
	]]>
	</style>

	<defs
   id="Patterns_And_Gradients">
		<linearGradient
   id="grad0-7"
   x1="0"
   y1="62.411152"
   x2="44.09462"
   y2="62.411152"
   gradientTransform="scale(0.88151344,1.1344126)"
   gradientUnits="userSpaceOnUse">
			<stop
   offset="0"
   stop-color="#ad8af2"
   stop-opacity="1"
   id="stop4" />
			<stop
   offset="0.16"
   stop-color="#9569ed"
   stop-opacity="1"
   id="stop6" />
			<stop
   offset="0.385"
   stop-color="#814cea"
   stop-opacity="1"
   id="stop8" />
			<stop
   offset="0.66"
   stop-color="#6b2be8"
   stop-opacity="1"
   id="stop10" />
			<stop
   offset="1"
   stop-color="#7138e3"
   stop-opacity="1"
   id="stop12" />
		</linearGradient>
	</defs>
	<g
   id="g36"
   transform="translate(-30.1093,-30.114449)">
		<title
   id="title16">Page-1</title>
		<g
   id="group2025-1"
   transform="translate(30.1093,-34.0157)">
			<title
   id="title18">Regulatory Compliance</title>
			<g
   id="shape2026-2">
				<title
   id="title20">path4</title>
				<path
   d="m 45.35,90.59 c 0,15.24 -18.01,27.51 -21.93,30.01 a 1.4268,1.46886 0 0 1 -1.49,0 C 18.01,118.11 0,105.84 0,90.59 V 72.25 C 0,71.87 0.15,71.5 0.41,71.23 a 1.40177,1.44309 0 0 1 0.98,-0.44 c 14.01,-0.38 10.79,-6.66 21.29,-6.66 10.5,0 7.27,6.28 21.29,6.66 a 1.40177,1.44309 0 0 1 0.97,0.43 1.43181,1.47401 0 0 1 0.41,1.03 z"
   class="st1"
   id="path22"
   inkscape:connector-curvature="0"
   style="fill:#7138e3;stroke:none;stroke-width:30.10930061;stroke-linecap:butt" />
			</g>
			<g
   id="shape2027-4"
   transform="translate(3.02851,-3.65402)">
				<title
   id="title25">path6-0-7</title>
				<path
   d="m 38.87,94.15 c 0,13.45 -15.44,24.27 -18.79,26.48 a 1.19401,1.2292 0 0 1 -1.28,0 C 15.44,118.43 0,107.61 0,94.15 V 77.97 C 0,77.63 0.12,77.3 0.35,77.06 a 1.18399,1.2189 0 0 1 0.84,-0.38 c 12.01,-0.33 9.25,-5.88 18.25,-5.88 9,0 6.23,5.55 18.24,5.88 a 1.18399,1.2189 0 0 1 0.84,0.38 c 0.22,0.24 0.35,0.56 0.35,0.9 z"
   class="st2"
   id="path27"
   inkscape:connector-curvature="0"
   style="fill:url(#grad0-7);stroke:none;stroke-width:30.10930061;stroke-linecap:butt" />
			</g>
			<g
   id="shape2028-8"
   transform="translate(9.09527,-18.2257)">
				<title
   id="title30">path8-3</title>
				<path
   d="m 28.46,112.8 -0.06,0.06 c -0.58,0.84 -1.73,1.07 -2.54,0.48 l -11.52,-8.27 2.14,-3.15 11.57,8.27 c 0.81,0.59 0.98,1.78 0.41,2.61 z m -10.89,-13.32 -5.01,7.44 -6.69,-4.76 5.02,-7.49 z m -5.99,10.35 1.26,-1.84 -8.06,-5.77 -1.27,1.84 a 1.53417,1.5794 -180 0 0 0.35,2.14 l 5.64,4.04 a 1.597,1.64408 -180 0 0 2.08,-0.41 z m 8.23,-12.31 -1.26,1.9 -8.07,-5.76 1.27,-1.85 c 0.46,-0.71 1.38,-0.83 2.07,-0.35 l 5.65,4.04 a 1.39542,1.43655 0 0 1 0.34,2.02 z m -5.53,19.73 H 2.42 A 2.43478,2.50655 -180 0 0 0,119.75 v 1.07 h 16.7 v -1.07 a 2.43478,2.50655 -180 0 0 -2.42,-2.5 z"
   class="st3"
   id="path32"
   inkscape:connector-curvature="0"
   style="fill:#ffffff" />
			</g>
		</g>
	</g>
</svg>

<?xml version="1.0" encoding="UTF-8" standalone="no"?>
<!DOCTYPE svg PUBLIC "-//W3C//DTD SVG 1.1//EN" "http://www.w3.org/Graphics/SVG/1.1/DTD/svg11.dtd">
<!-- Generated by Microsoft Visio, SVG Export Regulatory Compliance.svg Page-1 -->
<svg xmlns="http://www.w3.org/2000/svg" xmlns:xlink="http://www.w3.org/1999/xlink" xmlns:ev="http://www.w3.org/2001/xml-events"
		width="1.46629in" height="1.67803in" viewBox="0 0 105.573 120.818" xml:space="preserve" color-interpolation-filters="sRGB"
		class="st4">
	<style type="text/css">
	<![CDATA[
		.st1 {fill:#7138e3;stroke:none;stroke-linecap:butt;stroke-width:30.1093}
		.st2 {fill:url(#grad0-7);stroke:none;stroke-linecap:butt;stroke-width:30.1093}
		.st3 {fill:#ffffff}
		.st4 {fill:none;fill-rule:evenodd;font-size:12px;overflow:visible;stroke-linecap:square;stroke-miterlimit:3}
	]]>
	</style>

	<defs id="Patterns_And_Gradients">
		<linearGradient id="grad0-7" x1="0" y1="0" x2="1" y2="0" gradientTransform="rotate(90.31367395372 0.5 0.5)">
			<stop offset="0" stop-color="#ad8af2" stop-opacity="1"/>
			<stop offset="0.16" stop-color="#9569ed" stop-opacity="1"/>
			<stop offset="0.385" stop-color="#814cea" stop-opacity="1"/>
			<stop offset="0.66" stop-color="#6b2be8" stop-opacity="1"/>
			<stop offset="1" stop-color="#7138e3" stop-opacity="1"/>
		</linearGradient>
	</defs>
	<g>
		<title>Page-1</title>
		<g id="group2010-1" transform="translate(30.1093,-34.0157)">
			<title>Regulatory Compliance</title>
			<g id="shape2011-2">
				<title>path4</title>
				<path d="M45.35 90.59 C45.35 105.83 27.34 118.1 23.42 120.6 A1.4268 1.46886 0 0 1 21.93 120.6 C18.01 118.11 0 105.84
							 0 90.59 L0 72.25 C0 71.87 0.15 71.5 0.41 71.23 A1.40177 1.44309 0 0 1 1.39 70.79 C15.4 70.41 12.18 64.13
							 22.68 64.13 C33.18 64.13 29.95 70.41 43.97 70.79 A1.40177 1.44309 0 0 1 44.94 71.22 A1.43181 1.47401
							 0 0 1 45.35 72.25 L45.35 90.59 L45.35 90.59 Z" class="st1"/>
			</g>
			<g id="shape2012-4" transform="translate(3.02851,-3.65402)">
				<title>path6-0-7</title>
				<path d="M38.87 94.15 C38.87 107.6 23.43 118.42 20.08 120.63 A1.19401 1.2292 0 0 1 18.8 120.63 C15.44 118.43 0 107.61
							 0 94.15 L0 77.97 C0 77.63 0.12 77.3 0.35 77.06 A1.18399 1.2189 0 0 1 1.19 76.68 C13.2 76.35 10.44 70.8
							 19.44 70.8 C28.44 70.8 25.67 76.35 37.68 76.68 A1.18399 1.2189 0 0 1 38.52 77.06 C38.74 77.3 38.87 77.62
							 38.87 77.96 L38.87 94.15 Z" class="st2"/>
			</g>
			<g id="shape2013-8" transform="translate(9.09527,-18.2257)">
				<title>path8-3</title>
				<path d="M28.46 112.8 L28.4 112.86 C27.82 113.7 26.67 113.93 25.86 113.34 L14.34 105.07 L16.48 101.92 L28.05 110.19
							 C28.86 110.78 29.03 111.97 28.46 112.8 L28.46 112.8 ZM17.57 99.48 L12.56 106.92 L5.87 102.16 L10.89
							 94.67 L17.57 99.48 ZM11.58 109.83 L12.84 107.99 L4.78 102.22 L3.51 104.06 A1.53417 1.5794 -180 0 0 3.86
							 106.2 L9.5 110.24 A1.597 1.64408 -180 0 0 11.58 109.83 ZM19.81 97.52 L18.55 99.42 L10.48 93.66 L11.75
							 91.81 C12.21 91.1 13.13 90.98 13.82 91.46 L19.47 95.5 A1.39542 1.43655 0 0 1 19.81 97.52 ZM14.28 117.25
							 L2.42 117.25 A2.43478 2.50655 -180 0 0 0 119.75 L0 120.82 L16.7 120.82 L16.7 119.75 A2.43478 2.50655
							 -180 0 0 14.28 117.25 Z" class="st3"/>
			</g>
		</g>
	</g>
</svg>
